; G-Code generated by Simplify3D(R) Version 4.0.0
; Mar 3, 2018 at 10:36:20 AM
; Settings Summary
;   processName,Process1
;   applyToModels,calvin-logic-plate
;   profileName,MakerGear M2 (24V V4 hotend) (modified)
;   profileVersion,2015-09-04 08:00:00
;   baseProfile,
;   printMaterial,PLA
;   printQuality,High
;   printExtruders,
;   extruderName,Primary Extruder
;   extruderToolheadNumber,0
;   extruderDiameter,0.35
;   extruderAutoWidth,0
;   extruderWidth,0.4
;   extrusionMultiplier,0.9
;   extruderUseRetract,1
;   extruderRetractionDistance,1
;   extruderExtraRestartDistance,0
;   extruderRetractionZLift,0
;   extruderRetractionSpeed,2400
;   extruderUseCoasting,0
;   extruderCoastingDistance,0.2
;   extruderUseWipe,0
;   extruderWipeDistance,5
;   primaryExtruder,0
;   layerHeight,0.1
;   topSolidLayers,4
;   bottomSolidLayers,4
;   perimeterOutlines,2
;   printPerimetersInsideOut,1
;   startPointOption,2
;   startPointOriginX,0
;   startPointOriginY,0
;   sequentialIslands,0
;   spiralVaseMode,0
;   firstLayerHeightPercentage,90
;   firstLayerWidthPercentage,100
;   firstLayerUnderspeed,0.5
;   useRaft,0
;   raftExtruder,0
;   raftTopLayers,3
;   raftBaseLayers,2
;   raftOffset,3
;   raftSeparationDistance,0.14
;   raftTopInfill,100
;   aboveRaftSpeedMultiplier,0.3
;   useSkirt,1
;   skirtExtruder,0
;   skirtLayers,2
;   skirtOutlines,2
;   skirtOffset,4
;   usePrimePillar,0
;   primePillarExtruder,999
;   primePillarWidth,12
;   primePillarLocation,7
;   primePillarSpeedMultiplier,1
;   useOozeShield,0
;   oozeShieldExtruder,999
;   oozeShieldOffset,2
;   oozeShieldOutlines,1
;   oozeShieldSidewallShape,1
;   oozeShieldSidewallAngle,30
;   oozeShieldSpeedMultiplier,1
;   infillExtruder,0
;   internalInfillPattern,Rectilinear
;   externalInfillPattern,Rectilinear
;   infillPercentage,75
;   outlineOverlapPercentage,15
;   infillExtrusionWidthPercentage,100
;   minInfillLength,5
;   infillLayerInterval,1
;   internalInfillAngles,45,-45
;   overlapInternalInfillAngles,0
;   externalInfillAngles,45,-45
;   generateSupport,0
;   supportExtruder,0
;   supportInfillPercentage,40
;   supportExtraInflation,0
;   supportBaseLayers,0
;   denseSupportExtruder,0
;   denseSupportLayers,0
;   denseSupportInfillPercentage,70
;   supportLayerInterval,1
;   supportHorizontalPartOffset,0.3
;   supportUpperSeparationLayers,1
;   supportLowerSeparationLayers,1
;   supportType,0
;   supportGridSpacing,4
;   maxOverhangAngle,45
;   supportAngles,0
;   temperatureName,Primary Extruder,Heated Bed
;   temperatureNumber,0,2
;   temperatureSetpointCount,1,1
;   temperatureSetpointLayers,1,1
;   temperatureSetpointTemperatures,215,70
;   temperatureStabilizeAtStartup,1,1
;   temperatureHeatedBed,0,1
;   temperatureRelayBetweenLayers,0,0
;   temperatureRelayBetweenLoops,0,0
;   fanLayers,1,2
;   fanSpeeds,0,100
;   blipFanToFullPower,1
;   adjustSpeedForCooling,1
;   minSpeedLayerTime,15
;   minCoolingSpeedSlowdown,20
;   increaseFanForCooling,0
;   minFanLayerTime,45
;   maxCoolingFanSpeed,100
;   increaseFanForBridging,0
;   bridgingFanSpeed,100
;   use5D,1
;   relativeEdistances,0
;   allowEaxisZeroing,1
;   independentExtruderAxes,0
;   includeM10123,0
;   stickySupport,1
;   applyToolheadOffsets,0
;   gcodeXoffset,0
;   gcodeYoffset,0
;   gcodeZoffset,0
;   overrideMachineDefinition,1
;   machineTypeOverride,0
;   strokeXoverride,200
;   strokeYoverride,250
;   strokeZoverride,200
;   originOffsetXoverride,0
;   originOffsetYoverride,0
;   originOffsetZoverride,0
;   homeXdirOverride,-1
;   homeYdirOverride,-1
;   homeZdirOverride,-1
;   flipXoverride,1
;   flipYoverride,-1
;   flipZoverride,1
;   toolheadOffsets,0,0|0,0|0,0|0,0|0,0|0,0
;   overrideFirmwareConfiguration,1
;   firmwareTypeOverride,RepRap (Marlin/Repetier/Sprinter)
;   GPXconfigOverride,r2
;   baudRateOverride,115200
;   overridePrinterModels,1
;   printerModelsOverride,MakerGear_M2Single.stl
;   startingGcode,M108 S255 ; turn on M2 fans,G28 ; home all axes,G1 Y50 Z0.3 F9600 ; move forward to avoid binder clips,G1 X205 Z10 ; move off platform,G1 Z0.4 ; position nozzle,G92 E0 ; zero extruder,G1 E25 F225 ; purge nozzle,G92 E0 ; zero extruder,G1 X190 Z0.1 E1.0 F1200 ; slow wipe,G1 X180 Z0.25 ; lift
;   layerChangeGcode,
;   retractionGcode,
;   toolChangeGcode,
;   endingGcode,M104 S0 ; turn off extruder,M140 S0 ; turn off bed,G91 ; relative mode,G1 Z10 ; lift 10mm,G90 ; absolute mode,G28 X0 ; home X axis,M84 ; disable motors
;   exportFileFormat,gcode
;   celebration,0
;   celebrationSong,Random Song
;   postProcessing,
;   defaultSpeed,4800
;   outlineUnderspeed,0.6
;   solidInfillUnderspeed,0.8
;   supportUnderspeed,0.8
;   rapidXYspeed,18000
;   rapidZspeed,1200
;   minBridgingArea,50
;   bridgingExtraInflation,0
;   bridgingExtrusionMultiplier,1
;   bridgingSpeedMultiplier,1
;   useFixedBridgingAngle,0
;   fixedBridgingAngle,0
;   applyBridgingToPerimeters,0
;   filamentDiameters,1.75|1.75|1.75|1.75|1.75|1.75
;   filamentPricesPerKg,46|46|46|46|46|46
;   filamentDensities,1.25|1.25|1.25|1.25|1.25|1.25
;   useMinPrintHeight,0
;   minPrintHeight,0
;   useMaxPrintHeight,0
;   maxPrintHeight,0
;   useDiaphragm,0
;   diaphragmLayerInterval,20
;   robustSlicing,1
;   mergeAllIntoSolid,0
;   onlyRetractWhenCrossingOutline,1
;   retractBetweenLayers,1
;   useRetractionMinTravel,0
;   retractionMinTravel,3
;   retractWhileWiping,0
;   onlyWipeOutlines,1
;   avoidCrossingOutline,0
;   maxMovementDetourFactor,3
;   toolChangeRetractionDistance,12
;   toolChangeExtraRestartDistance,-0.5
;   toolChangeRetractionSpeed,600
;   externalThinWallType,0
;   internalThinWallType,2
;   thinWallAllowedOverlapPercentage,10
;   singleExtrusionMinLength,1
;   singleExtrusionMinPrintingWidthPercentage,50
;   singleExtrusionMaxPrintingWidthPercentage,200
;   singleExtrusionEndpointExtension,0.2
;   horizontalSizeCompensation,0
G90
M82
M106 S255
G4 P500
M106 S0
M140 S70
M190 S70
M104 S215 T0
M109 S215 T0
M108 S255 ; turn on M2 fans
G28 ; home all axes
G1 Y50 Z0.3 F9600 ; move forward to avoid binder clips
G1 X205 Z10 ; move off platform
G1 Z0.4 ; position nozzle
G92 E0 ; zero extruder
G1 E25 F225 ; purge nozzle
G92 E0 ; zero extruder
G1 X190 Z0.1 E1.0 F1200 ; slow wipe
G1 X180 Z0.25 ; lift
G92 E0
G1 E-1.0000 F2400
G1 Z0.090 F1200
; process Process1
; layer 1, Z = 0.090
T0
; tool H0.100 W0.400
; skirt
G1 X53.709 Y66.691 F18000
G1 E0.0000 F720
G92 E0
G1 X53.882 Y66.554 E0.0033 F2400
G1 X53.895 Y66.544 E0.0035
G1 X59.937 Y62.249 E0.1145
G1 X59.950 Y62.240 E0.1147
G1 X60.136 Y62.121 E0.1180
G1 X60.150 Y62.114 E0.1183
G1 X66.601 Y58.462 E0.2292
G1 X66.615 Y58.455 E0.2295
G1 X66.813 Y58.356 E0.2328
G1 X66.827 Y58.349 E0.2330
G1 X73.620 Y55.381 E0.3440
G1 X73.634 Y55.375 E0.3442
G1 X73.841 Y55.297 E0.3475
G1 X73.856 Y55.292 E0.3477
G1 X80.918 Y53.037 E0.4587
G1 X80.933 Y53.033 E0.4589
G1 X81.147 Y52.977 E0.4622
G1 X81.162 Y52.973 E0.4625
G1 X88.418 Y51.457 E0.5734
G1 X88.433 Y51.454 E0.5736
G1 X88.652 Y51.420 E0.5770
G1 X88.668 Y51.418 E0.5772
G1 X96.014 Y50.658 E0.6877
G1 X96.025 Y50.657 E0.6879
G1 X96.191 Y50.647 E0.6904
G1 X96.203 Y50.646 E0.6906
G1 X99.937 Y50.550 E0.7465
G1 X99.945 Y50.550 E0.7466
G1 X100.055 Y50.550 E0.7482
G1 X100.063 Y50.550 E0.7484
G1 X103.797 Y50.646 E0.8043
G1 X103.809 Y50.647 E0.8044
G1 X103.975 Y50.657 E0.8069
G1 X103.986 Y50.658 E0.8071
G1 X111.332 Y51.418 E0.9176
G1 X111.348 Y51.420 E0.9179
G1 X111.567 Y51.454 E0.9212
G1 X111.582 Y51.457 E0.9214
G1 X118.838 Y52.973 E1.0324
G1 X118.853 Y52.977 E1.0326
G1 X119.067 Y53.033 E1.0359
G1 X119.082 Y53.037 E1.0361
G1 X126.144 Y55.292 E1.1471
G1 X126.159 Y55.297 E1.1473
G1 X126.366 Y55.375 E1.1506
G1 X126.380 Y55.381 E1.1509
G1 X133.173 Y58.349 E1.2618
G1 X133.187 Y58.356 E1.2621
G1 X133.385 Y58.455 E1.2654
G1 X133.399 Y58.462 E1.2656
G1 X139.850 Y62.114 E1.3766
G1 X139.864 Y62.121 E1.3768
G1 X140.050 Y62.240 E1.3801
G1 X140.063 Y62.249 E1.3803
G1 X146.105 Y66.544 E1.4913
G1 X146.117 Y66.554 E1.4915
G1 X146.291 Y66.691 E1.4948
G1 X146.303 Y66.701 E1.4951
G1 X151.871 Y71.595 E1.6060
G1 X151.883 Y71.605 E1.6063
G1 X152.041 Y71.760 E1.6096
G1 X152.052 Y71.771 E1.6098
G1 X157.088 Y77.211 E1.7208
G1 X157.098 Y77.223 E1.7210
G1 X157.240 Y77.393 E1.7243
G1 X157.249 Y77.405 E1.7245
G1 X161.699 Y83.334 E1.8355
G1 X161.708 Y83.347 E1.8357
G1 X161.831 Y83.531 E1.8390
G1 X161.840 Y83.544 E1.8393
G1 X165.657 Y89.901 E1.9502
G1 X165.664 Y89.914 E1.9505
G1 X165.768 Y90.110 E1.9538
G1 X165.775 Y90.124 E1.9540
G1 X168.917 Y96.836 E2.0649
G1 X168.923 Y96.850 E2.0652
G1 X169.007 Y97.055 E2.0685
G1 X169.012 Y97.070 E2.0687
G1 X171.447 Y104.071 E2.1797
G1 X171.452 Y104.086 E2.1799
G1 X171.514 Y104.299 E2.1832
G1 X171.518 Y104.314 E2.1834
G1 X173.221 Y111.528 E2.2944
G1 X173.224 Y111.544 E2.2946
G1 X173.264 Y111.762 E2.2979
G1 X173.266 Y111.777 E2.2982
G1 X174.218 Y119.129 E2.4091
G1 X174.219 Y119.144 E2.4094
G1 X174.237 Y119.365 E2.4127
G1 X174.237 Y119.380 E2.4129
G1 X174.428 Y126.791 E2.5239
G1 X174.428 Y126.806 E2.5241
G1 X174.422 Y127.028 E2.5274
G1 X174.422 Y127.043 E2.5276
G1 X173.850 Y134.434 E2.6386
G1 X173.848 Y134.449 E2.6388
G1 X173.820 Y134.669 E2.6421
G1 X173.817 Y134.684 E2.6424
G1 X172.488 Y141.977 E2.7533
G1 X172.485 Y141.992 E2.7536
G1 X172.434 Y142.208 E2.7569
G1 X172.430 Y142.223 E2.7571
G1 X170.358 Y149.341 E2.8681
G1 X170.354 Y149.355 E2.8683
G1 X170.281 Y149.565 E2.8716
G1 X170.275 Y149.579 E2.8718
G1 X167.483 Y156.446 E2.9828
G1 X167.476 Y156.460 E2.9830
G1 X167.383 Y156.661 E2.9863
G1 X167.376 Y156.675 E2.9866
G1 X163.892 Y163.218 E3.0975
G1 X163.884 Y163.231 E3.0977
G1 X163.770 Y163.421 E3.1011
G1 X163.762 Y163.434 E3.1013
G1 X159.623 Y169.585 E3.2122
G1 X159.615 Y169.597 E3.2125
G1 X159.482 Y169.775 E3.2158
G1 X159.472 Y169.787 E3.2160
G1 X154.723 Y175.479 E3.3270
G1 X154.713 Y175.491 E3.3272
G1 X154.563 Y175.653 E3.3305
G1 X154.552 Y175.664 E3.3307
G1 X149.243 Y180.838 E3.4417
G1 X149.232 Y180.849 E3.4419
G1 X149.065 Y180.995 E3.4452
G1 X149.053 Y181.005 E3.4455
G1 X143.240 Y185.605 E3.5564
G1 X143.228 Y185.615 E3.5567
G1 X143.048 Y185.743 E3.5600
G1 X143.035 Y185.752 E3.5602
G1 X136.780 Y189.730 E3.6712
G1 X136.767 Y189.738 E3.6714
G1 X136.574 Y189.847 E3.6747
G1 X136.560 Y189.855 E3.6749
G1 X129.929 Y193.169 E3.7859
G1 X129.915 Y193.175 E3.7861
G1 X129.712 Y193.264 E3.7894
G1 X129.698 Y193.270 E3.7897
G1 X122.761 Y195.885 E3.9006
G1 X122.747 Y195.890 E3.9008
G1 X122.536 Y195.957 E3.9042
G1 X122.521 Y195.962 E3.9044
G1 X115.352 Y197.850 E4.0153
G1 X115.337 Y197.853 E4.0156
G1 X115.120 Y197.898 E4.0189
G1 X115.105 Y197.901 E4.0191
G1 X107.781 Y199.042 E4.1301
G1 X107.765 Y199.044 E4.1303
G1 X107.545 Y199.067 E4.1336
G1 X107.529 Y199.068 E4.1339
G1 X100.126 Y199.450 E4.2448
G1 X100.111 Y199.450 E4.2450
G1 X99.889 Y199.450 E4.2484
G1 X99.874 Y199.450 E4.2486
G1 X92.471 Y199.068 E4.3595
G1 X92.455 Y199.067 E4.3598
G1 X92.235 Y199.044 E4.3631
G1 X92.219 Y199.042 E4.3633
G1 X84.895 Y197.901 E4.4743
G1 X84.879 Y197.898 E4.4745
G1 X84.663 Y197.853 E4.4778
G1 X84.648 Y197.850 E4.4780
G1 X77.479 Y195.962 E4.5890
G1 X77.464 Y195.957 E4.5892
G1 X77.253 Y195.890 E4.5925
G1 X77.239 Y195.885 E4.5928
G1 X70.302 Y193.270 E4.7037
G1 X70.288 Y193.264 E4.7040
G1 X70.085 Y193.175 E4.7073
G1 X70.071 Y193.169 E4.7075
G1 X63.438 Y189.853 E4.8185
G1 X63.424 Y189.846 E4.8187
G1 X63.232 Y189.737 E4.8220
G1 X63.219 Y189.729 E4.8223
G1 X56.965 Y185.752 E4.9332
G1 X56.952 Y185.743 E4.9334
G1 X56.772 Y185.615 E4.9367
G1 X56.759 Y185.605 E4.9370
G1 X50.947 Y181.005 E5.0479
G1 X50.935 Y180.995 E5.0481
G1 X50.768 Y180.849 E5.0515
G1 X50.757 Y180.838 E5.0517
G1 X45.448 Y175.664 E5.1626
G1 X45.437 Y175.653 E5.1629
G1 X45.287 Y175.491 E5.1662
G1 X45.277 Y175.479 E5.1664
G1 X40.528 Y169.787 E5.2774
G1 X40.518 Y169.775 E5.2776
G1 X40.385 Y169.597 E5.2809
G1 X40.377 Y169.585 E5.2812
G1 X36.238 Y163.434 E5.3921
G1 X36.230 Y163.421 E5.3923
G1 X36.116 Y163.231 E5.3957
G1 X36.108 Y163.218 E5.3959
G1 X32.624 Y156.675 E5.5068
G1 X32.617 Y156.661 E5.5071
G1 X32.524 Y156.460 E5.5104
G1 X32.517 Y156.446 E5.5106
G1 X29.725 Y149.579 E5.6216
G1 X29.719 Y149.565 E5.6218
G1 X29.646 Y149.355 E5.6251
G1 X29.642 Y149.341 E5.6253
G1 X27.570 Y142.223 E5.7363
G1 X27.566 Y142.208 E5.7365
G1 X27.515 Y141.992 E5.7398
G1 X27.512 Y141.977 E5.7401
G1 X26.183 Y134.684 E5.8510
G1 X26.180 Y134.669 E5.8513
G1 X26.152 Y134.449 E5.8546
G1 X26.150 Y134.434 E5.8548
G1 X25.578 Y127.043 E5.9658
G1 X25.578 Y127.028 E5.9660
G1 X25.572 Y126.806 E5.9693
G1 X25.572 Y126.791 E5.9695
G1 X25.763 Y119.380 E6.0805
G1 X25.763 Y119.365 E6.0807
G1 X25.781 Y119.144 E6.0840
G1 X25.782 Y119.129 E6.0843
G1 X26.734 Y111.777 E6.1952
G1 X26.736 Y111.761 E6.1954
G1 X26.776 Y111.544 E6.1988
G1 X26.779 Y111.528 E6.1990
G1 X28.482 Y104.314 E6.3099
G1 X28.486 Y104.299 E6.3102
G1 X28.548 Y104.086 E6.3135
G1 X28.553 Y104.071 E6.3137
G1 X30.989 Y97.068 E6.4247
G1 X30.994 Y97.053 E6.4249
G1 X31.078 Y96.848 E6.4283
G1 X31.084 Y96.834 E6.4285
G1 X34.226 Y90.122 E6.5394
G1 X34.233 Y90.108 E6.5396
G1 X34.337 Y89.912 E6.5430
G1 X34.344 Y89.899 E6.5432
G1 X38.160 Y83.544 E6.6541
G1 X38.169 Y83.531 E6.6544
G1 X38.292 Y83.347 E6.6577
G1 X38.301 Y83.334 E6.6579
G1 X42.751 Y77.405 E6.7689
G1 X42.760 Y77.393 E6.7691
G1 X42.902 Y77.223 E6.7724
G1 X42.912 Y77.211 E6.7726
G1 X47.948 Y71.771 E6.8836
G1 X47.959 Y71.760 E6.8838
G1 X48.117 Y71.605 E6.8871
G1 X48.129 Y71.595 E6.8874
G1 X53.697 Y66.701 E6.9983
G1 X53.709 Y66.691 E6.9986
G1 X53.961 Y67.001 F18000
G92 E0
G1 X54.127 Y66.870 E0.0032 F2400
G1 X54.131 Y66.867 E0.0032
G1 X60.164 Y62.578 E0.1140
G1 X60.169 Y62.575 E0.1141
G1 X60.347 Y62.462 E0.1173
G1 X60.351 Y62.459 E0.1174
G1 X66.794 Y58.813 E0.2281
G1 X66.798 Y58.810 E0.2282
G1 X66.987 Y58.716 E0.2314
G1 X66.992 Y58.714 E0.2315
G1 X73.775 Y55.749 E0.3423
G1 X73.780 Y55.747 E0.3423
G1 X73.978 Y55.673 E0.3455
G1 X73.982 Y55.671 E0.3456
G1 X81.035 Y53.420 E0.4564
G1 X81.039 Y53.419 E0.4565
G1 X81.244 Y53.365 E0.4596
G1 X81.249 Y53.364 E0.4597
G1 X88.495 Y51.849 E0.5705
G1 X88.500 Y51.848 E0.5706
G1 X88.709 Y51.816 E0.5737
G1 X88.714 Y51.815 E0.5738
G1 X96.051 Y51.057 E0.6842
G1 X96.055 Y51.056 E0.6843
G1 X96.213 Y51.046 E0.6866
G1 X96.217 Y51.046 E0.6867
G1 X99.945 Y50.950 E0.7425
G1 X99.947 Y50.950 E0.7425
G1 X100.053 Y50.950 E0.7441
G1 X100.055 Y50.950 E0.7442
G1 X103.783 Y51.046 E0.8000
G1 X103.787 Y51.046 E0.8000
G1 X103.945 Y51.056 E0.8024
G1 X103.949 Y51.057 E0.8025
G1 X111.286 Y51.815 E0.9129
G1 X111.291 Y51.816 E0.9129
G1 X111.500 Y51.848 E0.9161
G1 X111.505 Y51.849 E0.9162
G1 X118.751 Y53.364 E1.0270
G1 X118.756 Y53.365 E1.0271
G1 X118.961 Y53.419 E1.0302
G1 X118.965 Y53.420 E1.0303
G1 X126.018 Y55.671 E1.1411
G1 X126.022 Y55.673 E1.1412
G1 X126.220 Y55.747 E1.1443
G1 X126.225 Y55.749 E1.1444
G1 X133.008 Y58.714 E1.2552
G1 X133.013 Y58.716 E1.2553
G1 X133.202 Y58.810 E1.2584
G1 X133.206 Y58.813 E1.2585
G1 X139.649 Y62.459 E1.3693
G1 X139.653 Y62.462 E1.3694
G1 X139.831 Y62.575 E1.3726
G1 X139.836 Y62.578 E1.3726
G1 X145.869 Y66.867 E1.4834
G1 X145.873 Y66.870 E1.4835
G1 X146.039 Y67.001 E1.4867
G1 X146.043 Y67.005 E1.4867
G1 X151.603 Y71.892 E1.5975
G1 X151.607 Y71.895 E1.5976
G1 X151.758 Y72.043 E1.6008
G1 X151.762 Y72.046 E1.6009
G1 X156.790 Y77.479 E1.7117
G1 X156.794 Y77.483 E1.7117
G1 X156.929 Y77.645 E1.7149
G1 X156.932 Y77.649 E1.7150
G1 X161.376 Y83.570 E1.8258
G1 X161.379 Y83.574 E1.8258
G1 X161.497 Y83.750 E1.8290
G1 X161.499 Y83.754 E1.8291
G1 X165.311 Y90.102 E1.9399
G1 X165.314 Y90.107 E1.9400
G1 X165.413 Y90.293 E1.9431
G1 X165.415 Y90.298 E1.9432
G1 X168.552 Y97.001 E2.0540
G1 X168.554 Y97.005 E2.0541
G1 X168.634 Y97.201 E2.0572
G1 X168.636 Y97.206 E2.0573
G1 X171.068 Y104.198 E2.1681
G1 X171.070 Y104.203 E2.1682
G1 X171.129 Y104.405 E2.1713
G1 X171.130 Y104.410 E2.1714
G1 X172.830 Y111.615 E2.2822
G1 X172.831 Y111.620 E2.2823
G1 X172.869 Y111.828 E2.2855
G1 X172.870 Y111.833 E2.2855
G1 X173.820 Y119.175 E2.3963
G1 X173.821 Y119.180 E2.3964
G1 X173.837 Y119.390 E2.3996
G1 X173.838 Y119.396 E2.3996
G1 X174.028 Y126.796 E2.5104
G1 X174.028 Y126.801 E2.5105
G1 X174.023 Y127.012 E2.5137
